X:111
T:RVW2/2/111 It Was One Morning In The Spring
C:Mr. Stacey, Hollycombe, Sussex, 28 May 1904
L:1/8
Q:1/4=66
M:3/4
I:linebreak $
K:G
"^(Editorial suggestion  " Bc e | d3 G AA | A3 B ce |$ a3 a dd | e2 (e>d) ce | g3 a dd |$ 
w: It was one|mor- ning in the|spring I went on|board to serve the|king I _ left my|dea- rest dear be-|
(ef) g2 c/c/e | d2 BG AA | A2 z |] 
w: hind _ which oft- en- times|told me her heart was|mine.|



